lib/assets/buttons/cmd_random.svg

<svg height="24" viewBox="0 0 24 24" width="24" xmlns="http://www.w3.org/2000/svg">
    <path d="m14.83 13.41-1.41 1.41 3.13 3.13-2.05 2.05h5.5v-5.5l-2.04 2.04zm-.33-9.41 2.04 2.04-12.54 12.55 1.41 1.41 12.55-12.54 2.04 2.04v-5.5m-9.41 5.17-5.18-5.17-1.41 1.41 5.17 5.17z" />
</svg>

<?xml version="1.0" encoding="UTF-8" standalone="no"?>
<svg
   xmlns:dc="http://purl.org/dc/elements/1.1/"
   xmlns:cc="http://creativecommons.org/ns#"
   xmlns:rdf="http://www.w3.org/1999/02/22-rdf-syntax-ns#"
   xmlns:svg="http://www.w3.org/2000/svg"
   xmlns="http://www.w3.org/2000/svg"
   version="1.1"
   width="24"
   height="24"
   viewBox="0 0 24 24"
   id="svg5147">
  <metadata
     id="metadata5153">
    <rdf:RDF>
      <cc:Work
         rdf:about="">
        <dc:format>image/svg+xml</dc:format>
        <dc:type
           rdf:resource="http://purl.org/dc/dcmitype/StillImage" />
        <dc:title></dc:title>
      </cc:Work>
    </rdf:RDF>
  </metadata>
  <defs
     id="defs5151" />
  <path
     d="m 14.83,13.41 -1.41,1.41 3.13,3.13 L 14.5,20 H 20 v -5.5 l -2.04,2.04 -3.13,-3.13 M 14.5,4 16.54,6.04 4,18.59 5.41,20 17.96,7.46 20,9.5 V 4 M 10.59,9.17 5.41,4 4,5.41 9.17,10.58 Z"
     id="path5145"
     style="stroke-width:0.99999994" />
</svg>
